X:1140
T:'Terry Hiegh-Ho the Grinder"  (2nd Setting)  (slipjig)   1140
C:after Mr. Touhy
N:Shifted final eighth note from "A" section to be anacrucis for "B" and deleted final eighth from "B" section
B:O'Neill's Music Of Ireland (The 1850) Lyon & Healy, Chicago, 1903 edition
Z:FROM O'NEILL'S TO NOTEWORTHY, FROM NOTEWORTHY TO ABC, MIDI AND .TXT BY VINCE
BRENNAN July 2003 (HTTP://WWW.SOSYOURMOM.COM)
I:abc2nwc
M:9/8
L:1/8
K:G
B|AGE A2B G2B|A2G ABd e2d|gdB AGE G2A|GEE GAB d2:|
|:B|dgg edB TRBAB|dgg edB TRd2B|dgg edB TRBAB|GEE GAB TRd2:|


